svg/fluentui-system-icons/ic_fluent_panel_left_24_filled.svg

<svg width="24" height="24" viewBox="0 0 24 24" fill="none" xmlns="http://www.w3.org/2000/svg">
<path d="M5.25 4C3.45507 4 2 5.45507 2 7.25V16.75C2 18.5449 3.45508 20 5.25 20H18.75C20.5449 20 22 18.5449 22 16.75V7.25C22 5.45507 20.5449 4 18.75 4H5.25ZM18.75 5.5C19.7165 5.5 20.5 6.2835 20.5 7.25V16.75C20.5 17.7165 19.7165 18.5 18.75 18.5H9.5V5.5H18.75Z" fill="#212121"/>
</svg>

<svg xmlns="http://www.w3.org/2000/svg" width="24" height="24"><path d="M5.25 4A3.25 3.25 0 0 0 2 7.25v9.5A3.25 3.25 0 0 0 5.25 20h13.5A3.25 3.25 0 0 0 22 16.75v-9.5A3.25 3.25 0 0 0 18.75 4H5.25Zm13.5 1.5c.966 0 1.75.784 1.75 1.75v9.5a1.75 1.75 0 0 1-1.75 1.75H9.5v-13h9.25Z"/></svg>
